X: 42322
T: Wee John O'Connor's
R: reel
M: 4/4
K: Gmajor
|:ABdg fdAF|GFDG- GAGF|ABdg fde/f/g|abde- edB/A/G|
ABdg fdAF|GFDG- GAGF|c2A/B/c BGDG|1 BAGA- AGFD:|2 BAGA- A4||
|:EFAG GFDA|E2DA- ABce|EFAG AGED|c2cB- BAAG|
EFAG GFDA|E2DA- ABce|dzd/d/d dAAG|1 BAGA- AGFG:|2 BAGA- A4||
|:ABdg da/b/b/z/G|AFAg af2d|gfdg fde2|edAG A/A/AAG|
ABdg da/b/bz|AFAg af2d|gfdg fde2|edB/A/G BAAG:|

